X:11332
%5572
T:Frost is all under
C:Trad.
K:Cmaj
M:4/4
G |: E2 G GEG 
%Error : Bar 1 is 3/4 not 4/4
| AcA GED 
%Error : Bar 2 is 3/4 not 4/4
| E2 E DCD 
%Error : Bar 3 is 3/4 not 4/4
| ECC C3 
%Error : Bar 4 is 3/4 not 4/4
|
E2 G GEG 
%Error : Bar 5 is 3/4 not 4/4
| AcA GEG 
%Error : Bar 6 is 3/4 not 4/4
| c3 dcd 
%Error : Bar 7 is 3/4 not 4/4
| ecB c3 :|
|:e3 edc 
%Error : Bar 10 is 3/2 not 4/4
| f2d dcd 
%Error : Bar 11 is 3/4 not 4/4
| eee edc 
%Error : Bar 12 is 3/4 not 4/4
| g2 g agf 
%Error : Bar 13 is 3/4 not 4/4
|
e3 edc 
%Error : Bar 14 is 3/4 not 4/4
| f2 d dcA 
%Error : Bar 15 is 3/4 not 4/4
| GAc dcA 
%Error : Bar 16 is 3/4 not 4/4
| c3 c3 :|


